**kern	**kern	**dynam
*part1	*part1	*part1
*staff2	*staff1	*
*I"Piano	*	*
*clefF4	*clefG2	*
*k[f#c#g#]	*k[f#c#g#]	*
=1	=1	=1
*^	*	*
4D 4F# 4A	4BBB	4d	.
4D 4E 4G#X	4EE	4d	.
=	=	=	=
*	*^	*	*
4D	2E 2A	4AAA\	4d)	.
4C#	.	4AA\	4c#	.
*	*v	*v	*	*
=	=	=	=
4C# 4E	4AAA 4AA	4A 4c#	p
8.EL	8.GGG#L 8.GG#	8.BL 8.e	<
16EJk	16GGG#Jk 16GG#	16BJk 16e	.
=	=	=	=
!	!	!LO:TX:b:i:t=cres.	!
4ryy@	4FFF# 4FF#	4A 4B 4d#X 4a	[
4G# 4B	16EEELL 16EE	4e 4g#	.
.	16FFF# 16FF#	.	.
.	16GGG# 16GG#	.	.
.	16AAAJJ 16AA	.	.
=	=	=	=
*	*^	*^	*
2F#	4.B	2BBB\ 2BB	2f#	4e	.
.	.	.	.	4d#X	.
.	8A	.	.	.	.
*	*v	*v	*	*	*
*	*	*v	*v	*
=	=	=	=
2E 2G# 2B	2EEE 2EE	2e	.
=	=	=	=
4Gn 4A#X	4C#	(4e	pp
8GL 8B	8BBL	8eL	.
8GJ 8B	8BBJ	8eJ	.
*v	*v	*	*
=	=	=
*-	*-	*-
!!!system-decoration: {(s1,s2)}
